src/xmb/monochrome/Microsoft - Xbox 360 (Development Kit Hard Drives).svg

<svg xmlns="http://www.w3.org/2000/svg" xml:space="preserve" viewBox="0 0 64 64"><style>.st0{fill:#fff}</style><circle cx="32" cy="23.5" r="3" class="st0"/><path d="M55 21.03c-.72-1.41-1.3-3-2-3.93-.72-4.02-6.34-3.02-8.01-2.92-.26.01-.99.96-.99.96-1.51.19-2.39.48-3 .98-.83.68-1.98 1.64-3 1.96-3.32 1.06-6 .98-6 .98s-2.68.08-6-.98c-1.02-.33-2.17-1.29-3-1.96-.61-.5-1.49-.79-3-.98 0 0-.73-.95-.99-.96-1.67-.1-7.3-1.1-8.01 2.92-.7.93-1.28 2.52-2 3.93-1.93 3.78-4 14.08-4 22.59 0 0 .4 13.55 11 3.93 0 0 7.32-4.55 16-4.55s16 4.55 16 4.55c10.6 9.63 11-3.93 11-3.93 0-8.51-2.07-18.81-4-22.59M15 27c-2.21 0-4-1.79-4-4s1.79-4 4-4 4 1.79 4 4-1.79 4-4 4m6.5 11.29a5.52 5.52 0 0 1-3.79-3.79h1.79c1.1 0 2 .9 2 2zm0-8.79c0 1.1-.9 2-2 2h-1.79a5.52 5.52 0 0 1 3.79-3.79zm17-8c.83 0 1.5.67 1.5 1.5s-.67 1.5-1.5 1.5S37 23.83 37 23s.67-1.5 1.5-1.5M24 23c0-.83.67-1.5 1.5-1.5s1.5.67 1.5 1.5-.67 1.5-1.5 1.5S24 23.83 24 23m.5 15.29V36.5c0-1.1.9-2 2-2h1.79a5.52 5.52 0 0 1-3.79 3.79m2-6.79c-1.1 0-2-.9-2-2v-1.79c1.83.52 3.27 1.96 3.79 3.79zM32 27c-1.93 0-3.5-1.57-3.5-3.5S30.07 20 32 20s3.5 1.57 3.5 3.5S33.93 27 32 27m8 10c-2.21 0-4-1.79-4-4s1.79-4 4-4 4 1.79 4 4-1.79 4-4 4m4-12c-1.1 0-2-.9-2-2s.9-2 2-2 2 .9 2 2-.9 2-2 2m4.5 4.5c-1.1 0-2-.9-2-2s.9-2 2-2 2 .9 2 2-.9 2-2 2m0-9c-1.1 0-2-.9-2-2s.9-2 2-2 2 .9 2 2-.9 2-2 2M53 25c-1.1 0-2-.9-2-2s.9-2 2-2 2 .9 2 2-.9 2-2 2" class="st0"/></svg>

<?xml version="1.0" encoding="utf-8"?>
<svg version="1.1" xmlns="http://www.w3.org/2000/svg" xmlns:xlink="http://www.w3.org/1999/xlink" x="0px" y="0px" viewBox="0 0 64 64" style="enable-background:new 0 0 64 64;" xml:space="preserve">
<style type="text/css">
	.st0{fill:#FFFFFF;}
</style>
<g>
	<circle class="st0" cx="32" cy="23.5" r="3"/>
	<path class="st0" d="M55,21.03c-0.72-1.41-1.3-3-2-3.93c-0.72-4.02-6.34-3.02-8.01-2.92C44.73,14.19,44,15.14,44,15.14c-1.51,0.19-2.39,0.48-3,0.98c-0.83,0.68-1.98,1.64-3,1.96c-3.32,1.06-6,0.98-6,0.98s-2.68,0.08-6-0.98c-1.02-0.33-2.17-1.29-3-1.96c-0.61-0.5-1.49-0.79-3-0.98c0,0-0.73-0.95-0.99-0.96c-1.67-0.1-7.3-1.1-8.01,2.92c-0.7,0.93-1.28,2.52-2,3.93c-1.93,3.78-4,14.08-4,22.59c0,0,0.4,13.55,11,3.93c0,0,7.32-4.55,16-4.55s16,4.55,16,4.55c10.6,9.63,11-3.93,11-3.93C59,35.11,56.93,24.81,55,21.03z M15,27c-2.21,0-4-1.79-4-4s1.79-4,4-4s4,1.79,4,4S17.21,27,15,27zM21.5,38.29c-1.83-0.52-3.27-1.96-3.79-3.79h1.79c1.1,0,2,0.9,2,2V38.29z M21.5,29.5c0,1.1-0.9,2-2,2h-1.79c0.52-1.83,1.96-3.27,3.79-3.79V29.5z M38.5,21.5c0.83,0,1.5,0.67,1.5,1.5s-0.67,1.5-1.5,1.5S37,23.83,37,23S37.67,21.5,38.5,21.5zM24,23c0-0.83,0.67-1.5,1.5-1.5S27,22.17,27,23s-0.67,1.5-1.5,1.5S24,23.83,24,23z M24.5,38.29V36.5c0-1.1,0.9-2,2-2h1.79C27.77,36.33,26.33,37.77,24.5,38.29z M26.5,31.5c-1.1,0-2-0.9-2-2v-1.79c1.83,0.52,3.27,1.96,3.79,3.79H26.5z M32,27c-1.93,0-3.5-1.57-3.5-3.5S30.07,20,32,20s3.5,1.57,3.5,3.5S33.93,27,32,27z M40,37c-2.21,0-4-1.79-4-4s1.79-4,4-4s4,1.79,4,4S42.21,37,40,37z M44,25c-1.1,0-2-0.9-2-2s0.9-2,2-2s2,0.9,2,2S45.1,25,44,25z M48.5,29.5c-1.1,0-2-0.9-2-2s0.9-2,2-2s2,0.9,2,2S49.6,29.5,48.5,29.5z M48.5,20.5c-1.1,0-2-0.9-2-2s0.9-2,2-2s2,0.9,2,2S49.6,20.5,48.5,20.5z M53,25c-1.1,0-2-0.9-2-2s0.9-2,2-2s2,0.9,2,2S54.1,25,53,25z"/>
</g>
</svg>
